X:1
T:Hungarian Folk Song Number 1
M:C
K:A clef=treble-8
L:1/4
ve/e/ f/f/ e/e/ c|d/d/B/B/ c/c/ A|e/e/f/f/ e/e/ c|d/d/B/B/ c/c/ A|
|:vA/c/A/c/ e e|A/c/A/c/ e e|a/a/f/f/ d f|e/e/d/c/ B A:|]

